X:339
T: Mach auf, o Schfer
N: P0599
O: Lothringen
S: PINCK, Louis: Verklingende Weisen Bd 4, Kassel 1939]
R: Hirtenlied, Brautwerbung]
M: 4/4
L: 1/8
K: G
D2 | G3ABAG2 | A4z2
DF | A3AdcBA | G4z2
GA | B2B2d2d2 | cBA2z2
DF | A3Bd2cA | A2G2z2
B2 | A3GA2B2 | c3de2
c2 | B2G2B2A2 | G4z2

